static/img/ico-appstore.svg

<svg width="120" height="40" viewBox="0 0 120 40" fill="none" xmlns="http://www.w3.org/2000/svg">
<rect x="0.5" y="0.5" width="119" height="39" rx="5.5" fill="black"/>
<rect x="0.5" y="0.5" width="119" height="39" rx="5.5" stroke="#A6A6A6"/>
<path d="M24.7045 20.7631C24.7166 19.8432 24.9669 18.9413 25.4321 18.1412C25.8972 17.3411 26.5621 16.6688 27.3648 16.187C26.8548 15.476 26.1821 14.8908 25.4 14.478C24.6178 14.0652 23.7479 13.8361 22.8592 13.809C20.9635 13.6147 19.1258 14.9164 18.1598 14.9164C17.1751 14.9164 15.6878 13.8283 14.0862 13.8604C13.0502 13.8931 12.0406 14.1872 11.1557 14.7141C10.2708 15.241 9.54075 15.9827 9.03674 16.8669C6.85352 20.5573 8.48201 25.9809 10.5734 28.964C11.6197 30.4247 12.8426 32.0564 14.4428 31.9985C16.0086 31.9351 16.5934 31.0237 18.4835 31.0237C20.3561 31.0237 20.9048 31.9985 22.5374 31.9617C24.2176 31.9351 25.2762 30.4945 26.2859 29.02C27.0377 27.9792 27.6162 26.8288 28 25.6116C27.0238 25.2085 26.1908 24.5338 25.6048 23.6716C25.0187 22.8094 24.7056 21.7979 24.7045 20.7631Z" fill="white"/>
<path d="M21.6208 11.8471C22.5369 10.7734 22.9883 9.39335 22.879 8C21.4793 8.14352 20.1865 8.7966 19.258 9.82911C18.804 10.3335 18.4563 10.9203 18.2348 11.556C18.0132 12.1917 17.9222 12.8638 17.9669 13.5338C18.6669 13.5408 19.3595 13.3927 19.9924 13.1005C20.6253 12.8084 21.1821 12.3798 21.6208 11.8471Z" fill="white"/>
<path d="M36.791 8.50146H38.8608C40.6494 8.50146 41.5195 9.56494 41.5195 11.4941C41.5195 13.4233 40.6406 14.5 38.8608 14.5H36.791V8.50146ZM37.7886 9.34082V13.6606H38.751C39.9375 13.6606 40.4956 12.9443 40.4956 11.5073C40.4956 10.0615 39.9331 9.34082 38.751 9.34082H37.7886ZM44.6748 9.77588C45.8877 9.77588 46.7358 10.5625 46.7358 11.8677V12.4697C46.7358 13.8188 45.8877 14.5791 44.6748 14.5791C43.4443 14.5791 42.605 13.8276 42.605 12.4741V11.8721C42.605 10.6021 43.4575 9.77588 44.6748 9.77588ZM44.6792 10.5625C43.9849 10.5625 43.5894 11.1426 43.5894 11.9204V12.439C43.5894 13.2168 43.9585 13.7925 44.6792 13.7925C45.3911 13.7925 45.7559 13.2212 45.7559 12.439V11.9204C45.7559 11.1426 45.3735 10.5625 44.6792 10.5625ZM53.8989 9.85498L52.6772 14.5H51.6841L50.7129 11.0723H50.6865L49.7329 14.5H48.7354L47.4609 9.85498H48.5112L49.2583 13.397H49.3022L50.2383 9.85498H51.1567L52.1191 13.397H52.1631L52.9233 9.85498H53.8989ZM54.8657 14.5V9.85498H55.8237V10.6899H55.8721C55.9907 10.3252 56.3291 9.78467 57.2695 9.78467C58.2056 9.78467 58.834 10.3032 58.834 11.3623V14.5H57.8584V11.6479C57.8584 10.9404 57.4893 10.6152 56.9399 10.6152C56.2192 10.6152 55.8413 11.1689 55.8413 11.9204V14.5H54.8657ZM60.3105 14.5V8.18506H61.2861V14.5H60.3105ZM64.6348 9.77588C65.8477 9.77588 66.6958 10.5625 66.6958 11.8677V12.4697C66.6958 13.8188 65.8477 14.5791 64.6348 14.5791C63.4043 14.5791 62.5649 13.8276 62.5649 12.4741V11.8721C62.5649 10.6021 63.4175 9.77588 64.6348 9.77588ZM64.6392 10.5625C63.9448 10.5625 63.5493 11.1426 63.5493 11.9204V12.439C63.5493 13.2168 63.9185 13.7925 64.6392 13.7925C65.3511 13.7925 65.7158 13.2212 65.7158 12.439V11.9204C65.7158 11.1426 65.3335 10.5625 64.6392 10.5625ZM69.2227 14.5703C68.3218 14.5703 67.7021 14.0166 67.7021 13.1509C67.7021 12.3291 68.2734 11.7754 69.3457 11.7754H70.519V11.3403C70.519 10.8086 70.1807 10.5581 69.6445 10.5581C69.1172 10.5581 68.8799 10.7778 68.8052 11.0854H67.8779C67.9351 10.3076 68.5195 9.78467 69.6753 9.78467C70.6685 9.78467 71.4902 10.1978 71.4902 11.3535V14.5H70.563V13.8979H70.519C70.3125 14.2539 69.9082 14.5703 69.2227 14.5703ZM69.5259 13.8145C70.0796 13.8145 70.519 13.4365 70.519 12.9312V12.4302H69.4995C68.9326 12.4302 68.6821 12.7158 68.6821 13.1025C68.6821 13.5859 69.0864 13.8145 69.5259 13.8145ZM74.4961 9.79346C75.1509 9.79346 75.6519 10.0835 75.832 10.5537H75.8804V8.18506H76.856V14.5H75.9067V13.7573H75.8584C75.7178 14.2275 75.1597 14.5615 74.4829 14.5615C73.415 14.5615 72.7207 13.8013 72.7207 12.5752V11.7798C72.7207 10.5537 73.4282 9.79346 74.4961 9.79346ZM74.7686 10.5933C74.1182 10.5933 73.7139 11.0767 73.7139 11.9204V12.4302C73.7139 13.2783 74.1226 13.7617 74.7905 13.7617C75.4497 13.7617 75.8804 13.2827 75.8804 12.4917V11.7886C75.8804 11.0723 75.4102 10.5933 74.7686 10.5933ZM82.2129 9.77588C83.4258 9.77588 84.2739 10.5625 84.2739 11.8677V12.4697C84.2739 13.8188 83.4258 14.5791 82.2129 14.5791C80.9824 14.5791 80.1431 13.8276 80.1431 12.4741V11.8721C80.1431 10.6021 80.9956 9.77588 82.2129 9.77588ZM82.2173 10.5625C81.5229 10.5625 81.1274 11.1426 81.1274 11.9204V12.439C81.1274 13.2168 81.4966 13.7925 82.2173 13.7925C82.9292 13.7925 83.2939 13.2212 83.2939 12.439V11.9204C83.2939 11.1426 82.9116 10.5625 82.2173 10.5625ZM85.5308 14.5V9.85498H86.4888V10.6899H86.5371C86.6558 10.3252 86.9941 9.78467 87.9346 9.78467C88.8706 9.78467 89.499 10.3032 89.499 11.3623V14.5H88.5234V11.6479C88.5234 10.9404 88.1543 10.6152 87.605 10.6152C86.8843 10.6152 86.5063 11.1689 86.5063 11.9204V14.5H85.5308ZM93.2739 9.88574V8.72559H94.2275V9.88574H95.269V10.6504H94.2275V13.1157C94.2275 13.6211 94.4165 13.7617 94.9395 13.7617C95.0713 13.7617 95.2471 13.7529 95.3218 13.7441V14.4912C95.2427 14.5044 94.9175 14.5308 94.6978 14.5308C93.5684 14.5308 93.2607 14.1265 93.2607 13.1948V10.6504H92.5532V9.88574H93.2739ZM96.4995 14.5V8.18506H97.4707V10.6899H97.519C97.6201 10.3604 97.998 9.78467 98.9297 9.78467C99.835 9.78467 100.481 10.3076 100.481 11.3667V14.5H99.5098V11.6523C99.5098 10.9448 99.1187 10.6152 98.5649 10.6152C97.8662 10.6152 97.4707 11.1646 97.4707 11.9204V14.5H96.4995ZM103.755 14.5791C102.489 14.5791 101.703 13.8013 101.703 12.4917V11.8633C101.703 10.5449 102.564 9.77588 103.698 9.77588C104.862 9.77588 105.684 10.5845 105.684 11.8633V12.4082H102.669V12.6367C102.669 13.3047 103.065 13.7969 103.75 13.7969C104.26 13.7969 104.612 13.5552 104.678 13.2651H105.631C105.574 13.8013 105.007 14.5791 103.755 14.5791ZM102.669 11.771H104.73V11.7095C104.73 11.0107 104.322 10.5449 103.702 10.5449C103.083 10.5449 102.669 11.0107 102.669 11.7095V11.771Z" fill="white"/>
<path d="M38.2061 30.5H36.1758L40.3066 18.5029H42.5391L46.6611 30.5H44.5518L43.4883 27.1777H39.2783L38.2061 30.5ZM41.4316 20.5771H41.3525L39.7266 25.6484H43.04L41.4316 20.5771ZM52.2644 30.6318C51.0603 30.6318 50.1462 30.0605 49.654 29.208H49.5837V33.585H47.6325V21.21H49.531V22.5723H49.6013C50.1111 21.6846 51.0603 21.0869 52.3083 21.0869C54.3913 21.0869 55.8767 22.6602 55.8767 25.4375V26.2637C55.8767 29.0234 54.4089 30.6318 52.2644 30.6318ZM51.8161 29.0234C53.0554 29.0234 53.8991 28.0303 53.8991 26.1582V25.5078C53.8991 23.7061 53.1081 22.6777 51.781 22.6777C50.4187 22.6777 49.5661 23.7852 49.5661 25.499V26.1582C49.5661 27.916 50.4275 29.0234 51.8161 29.0234ZM62.183 30.6318C60.9789 30.6318 60.0649 30.0605 59.5727 29.208H59.5024V33.585H57.5512V21.21H59.4496V22.5723H59.52C60.0297 21.6846 60.9789 21.0869 62.227 21.0869C64.31 21.0869 65.7954 22.6602 65.7954 25.4375V26.2637C65.7954 29.0234 64.3276 30.6318 62.183 30.6318ZM61.7348 29.0234C62.9741 29.0234 63.8178 28.0303 63.8178 26.1582V25.5078C63.8178 23.7061 63.0268 22.6777 61.6996 22.6777C60.3373 22.6777 59.4848 23.7852 59.4848 25.499V26.1582C59.4848 27.916 60.3461 29.0234 61.7348 29.0234ZM69.8387 27.1689H71.7899C71.8778 28.2061 72.7919 29.0938 74.4882 29.0938C76.0438 29.0938 76.9667 28.3643 76.9667 27.2305C76.9667 26.3164 76.3514 25.8242 75.0682 25.5166L73.0995 25.0244C71.5526 24.6641 70.1639 23.7412 70.1639 21.79C70.1639 19.4961 72.1679 18.2393 74.497 18.2393C76.8261 18.2393 78.7684 19.4961 78.8124 21.7373H76.8964C76.8085 20.7178 76.0262 19.874 74.4706 19.874C73.0995 19.874 72.1679 20.5244 72.1679 21.6406C72.1679 22.4229 72.7128 22.9854 73.829 23.2402L75.7889 23.7236C77.5907 24.1631 78.9618 25.0156 78.9618 27.0547C78.9618 29.4102 77.0546 30.7373 74.3387 30.7373C70.9989 30.7373 69.8827 28.7861 69.8387 27.1689ZM81.3395 21.21V18.9512H83.2555V21.21H85.066V22.7744H83.2555V27.7314C83.2555 28.7422 83.6334 29.0234 84.6793 29.0234C84.8463 29.0234 85.0045 29.0234 85.1188 29.0059V30.5C84.9605 30.5264 84.5914 30.5615 84.1959 30.5615C81.9371 30.5615 81.3131 29.7529 81.3131 27.8896V22.7744H80.0299V21.21H81.3395ZM90.3353 21.0518C93.0071 21.0518 94.4573 22.9326 94.4573 25.4639V26.2109C94.4573 28.8301 93.0159 30.6582 90.3353 30.6582C87.6546 30.6582 86.1956 28.8301 86.1956 26.2109V25.4639C86.1956 22.9414 87.6634 21.0518 90.3353 21.0518ZM90.3353 22.6162C88.8851 22.6162 88.1644 23.8027 88.1644 25.4902V26.2021C88.1644 27.8633 88.8763 29.085 90.3353 29.085C91.7943 29.085 92.4974 27.8721 92.4974 26.2021V25.4902C92.4974 23.7939 91.7855 22.6162 90.3353 22.6162ZM96.1055 30.5V21.21H98.0567V22.4316H98.127C98.3643 21.8516 99.0586 21.0781 100.351 21.0781C100.606 21.0781 100.825 21.0957 101.01 21.1309V22.8535C100.843 22.8096 100.5 22.7832 100.175 22.7832C98.6104 22.7832 98.083 23.75 98.083 24.998V30.5H96.1055ZM105.743 30.6582C103.256 30.6582 101.674 29.0146 101.674 26.2637V25.3232C101.674 22.7305 103.22 21.0518 105.664 21.0518C108.142 21.0518 109.636 22.792 109.636 25.4111V26.2988H103.598V26.5186C103.598 28.083 104.442 29.1201 105.769 29.1201C106.762 29.1201 107.439 28.6279 107.677 27.8281H109.531C109.25 29.3311 108.037 30.6582 105.743 30.6582ZM103.598 24.9365H107.729V24.9189C107.729 23.6006 106.912 22.5635 105.673 22.5635C104.416 22.5635 103.598 23.6006 103.598 24.9189V24.9365Z" fill="white"/>
</svg>

<svg xmlns="http://www.w3.org/2000/svg" width="120" height="40" fill="none" viewBox="0 0 120 40"><rect width="119" height="39" x=".5" y=".5" fill="#000" rx="5.5"/><rect width="119" height="39" x=".5" y=".5" stroke="#a6a6a6" rx="5.5"/><path fill="#fff" d="M24.705 20.763c.012-.92.262-1.822.727-2.622a5.5 5.5 0 0 1 1.933-1.954 5.7 5.7 0 0 0-1.965-1.709 5.8 5.8 0 0 0-2.54-.669c-1.896-.194-3.734 1.107-4.7 1.107-.985 0-2.472-1.088-4.074-1.056a6.1 6.1 0 0 0-2.93.854 5.9 5.9 0 0 0-2.12 2.153c-2.182 3.69-.554 9.114 1.537 12.097 1.047 1.46 2.27 3.092 3.87 3.035 1.566-.064 2.15-.975 4.04-.975 1.873 0 2.422.974 4.054.938 1.68-.027 2.74-1.468 3.749-2.942A12 12 0 0 0 28 25.612a5.37 5.37 0 0 1-2.395-1.94 5.2 5.2 0 0 1-.9-2.909M21.62 11.847A5.29 5.29 0 0 0 22.88 8a5.64 5.64 0 0 0-3.621 1.83 5.1 5.1 0 0 0-1.023 1.726 5 5 0 0 0-.268 1.978c.7.007 1.393-.141 2.025-.434a4.6 4.6 0 0 0 1.629-1.253M36.791 8.501h2.07c1.788 0 2.659 1.064 2.659 2.993 0 1.93-.88 3.006-2.66 3.006h-2.069zm.998.84v4.32h.962c1.187 0 1.745-.717 1.745-2.154 0-1.445-.563-2.166-1.745-2.166zm6.886.435c1.213 0 2.06.787 2.06 2.092v.602c0 1.349-.847 2.11-2.06 2.11-1.23 0-2.07-.752-2.07-2.106v-.602c0-1.27.853-2.096 2.07-2.096m.004.787c-.694 0-1.09.58-1.09 1.357v.519c0 .778.37 1.354 1.09 1.354.712 0 1.077-.572 1.077-1.354v-.519c0-.777-.383-1.357-1.077-1.357m9.22-.708L52.677 14.5h-.993l-.971-3.428h-.026l-.954 3.428h-.998l-1.274-4.645h1.05l.747 3.542h.044l.936-3.542h.919l.962 3.542h.044l.76-3.542zm.967 4.645V9.855h.958v.835h.048c.119-.365.457-.905 1.398-.905.936 0 1.564.518 1.564 1.577V14.5h-.976v-2.852c0-.708-.369-1.033-.918-1.033-.72 0-1.099.554-1.099 1.305v2.58zm5.444 0V8.185h.976V14.5zm4.325-4.724c1.213 0 2.06.787 2.06 2.092v.602c0 1.349-.847 2.11-2.06 2.11-1.23 0-2.07-.752-2.07-2.106v-.602c0-1.27.852-2.096 2.07-2.096m.004.787c-.694 0-1.09.58-1.09 1.357v.519c0 .778.37 1.354 1.09 1.354.712 0 1.077-.572 1.077-1.354v-.519c0-.777-.382-1.357-1.077-1.357m4.584 4.007c-.901 0-1.52-.553-1.52-1.42 0-.82.57-1.375 1.643-1.375h1.173v-.435c0-.531-.338-.782-.875-.782-.527 0-.764.22-.839.527h-.927c.057-.777.641-1.3 1.797-1.3.993 0 1.815.413 1.815 1.569V14.5h-.927v-.602h-.044c-.207.356-.61.672-1.296.672m.303-.755c.554 0 .993-.378.993-.884v-.5h-1.02c-.566 0-.817.285-.817.672 0 .483.404.712.844.712m4.97-4.022c.655 0 1.156.29 1.336.76h.048V8.186h.976V14.5h-.95v-.743h-.048c-.14.47-.698.805-1.375.805-1.068 0-1.762-.76-1.762-1.987v-.795c0-1.226.707-1.987 1.775-1.987m.273.8c-.65 0-1.055.484-1.055 1.327v.51c0 .848.409 1.332 1.076 1.332.66 0 1.09-.48 1.09-1.27v-.703c0-.717-.47-1.196-1.111-1.196m7.444-.817c1.213 0 2.06.787 2.06 2.092v.602c0 1.349-.847 2.11-2.06 2.11-1.23 0-2.07-.752-2.07-2.106v-.602c0-1.27.853-2.096 2.07-2.096m.004.787c-.694 0-1.09.58-1.09 1.357v.519c0 .778.37 1.354 1.09 1.354.712 0 1.077-.572 1.077-1.354v-.519c0-.777-.382-1.357-1.077-1.357m3.314 3.937V9.855h.958v.835h.048c.119-.365.457-.905 1.398-.905.936 0 1.564.518 1.564 1.577V14.5h-.976v-2.852c0-.708-.369-1.033-.918-1.033-.72 0-1.099.554-1.099 1.305v2.58zm7.743-4.614v-1.16h.954v1.16h1.041v.764h-1.041v2.466c0 .505.189.646.712.646.131 0 .307-.01.382-.018v.747c-.08.013-.404.04-.624.04-1.13 0-1.437-.405-1.437-1.336V10.65h-.708v-.764zm3.225 4.614V8.185h.972v2.505h.048c.101-.33.479-.905 1.41-.905.906 0 1.552.523 1.552 1.582V14.5h-.971v-2.848c0-.707-.391-1.037-.945-1.037-.699 0-1.094.55-1.094 1.305v2.58zm7.256.08c-1.266 0-2.052-.779-2.052-2.088v-.629c0-1.318.861-2.087 1.995-2.087 1.164 0 1.986.809 1.986 2.087v.545h-3.015v.229c0 .668.396 1.16 1.081 1.16.51 0 .862-.242.928-.532h.953c-.057.536-.624 1.314-1.876 1.314m-1.086-2.809h2.061v-.062c0-.698-.408-1.164-1.028-1.164-.619 0-1.033.466-1.033 1.165zM38.206 30.5h-2.03l4.13-11.997h2.233L46.661 30.5h-2.11l-1.063-3.322h-4.21zm3.226-9.923h-.08l-1.625 5.071h3.313zm10.832 10.055c-1.204 0-2.118-.572-2.61-1.424h-.07v4.377h-1.952V21.21h1.899v1.362h.07c.51-.887 1.46-1.485 2.707-1.485 2.083 0 3.569 1.573 3.569 4.35v.827c0 2.76-1.468 4.368-3.613 4.368m-.448-1.609c1.24 0 2.083-.993 2.083-2.865v-.65c0-1.802-.79-2.83-2.118-2.83-1.362 0-2.215 1.107-2.215 2.821v.66c0 1.757.861 2.864 2.25 2.864m10.367 1.609c-1.204 0-2.118-.572-2.61-1.424h-.07v4.377H57.55V21.21h1.899v1.362h.07c.51-.887 1.459-1.485 2.707-1.485 2.083 0 3.568 1.573 3.568 4.35v.827c0 2.76-1.467 4.368-3.612 4.368m-.448-1.609c1.24 0 2.083-.993 2.083-2.865v-.65c0-1.802-.791-2.83-2.118-2.83-1.363 0-2.215 1.107-2.215 2.821v.66c0 1.757.861 2.864 2.25 2.864m8.104-1.854h1.95c.089 1.037 1.003 1.925 2.7 1.925 1.555 0 2.478-.73 2.478-1.864 0-.914-.616-1.406-1.899-1.713l-1.968-.493c-1.547-.36-2.936-1.283-2.936-3.234 0-2.294 2.004-3.55 4.333-3.55s4.271 1.256 4.315 3.497h-1.916c-.088-1.02-.87-1.863-2.425-1.863-1.371 0-2.303.65-2.303 1.767 0 .782.545 1.344 1.661 1.6l1.96.483c1.802.44 3.173 1.292 3.173 3.33 0 2.356-1.907 3.683-4.623 3.683-3.34 0-4.456-1.95-4.5-3.568m11.5-5.959v-2.259h1.916v2.259h1.811v1.564h-1.81v4.957c0 1.011.377 1.292 1.423 1.292.167 0 .325 0 .44-.017V30.5a6.5 6.5 0 0 1-.923.061c-2.259 0-2.883-.808-2.883-2.671v-5.116H80.03V21.21zm8.996-.158c2.672 0 4.122 1.88 4.122 4.412v.747c0 2.62-1.441 4.447-4.122 4.447s-4.14-1.828-4.14-4.447v-.747c0-2.523 1.468-4.412 4.14-4.412m0 1.564c-1.45 0-2.17 1.187-2.17 2.874v.712c0 1.661.711 2.883 2.17 2.883s2.162-1.213 2.162-2.883v-.712c0-1.696-.712-2.874-2.162-2.874m5.77 7.884v-9.29h1.952v1.222h.07c.237-.58.932-1.354 2.224-1.354q.382 0 .659.053v1.723c-.167-.044-.51-.07-.835-.07-1.565 0-2.092.966-2.092 2.214V30.5zm9.638.158c-2.487 0-4.069-1.643-4.069-4.394v-.94c0-2.594 1.546-4.272 3.99-4.272 2.478 0 3.972 1.74 3.972 4.36v.887h-6.038v.22c0 1.564.844 2.601 2.171 2.601.993 0 1.67-.492 1.908-1.292h1.854c-.281 1.503-1.494 2.83-3.788 2.83m-2.145-5.722h4.131v-.017c0-1.318-.817-2.355-2.056-2.355-1.257 0-2.075 1.037-2.075 2.355z"/></svg>
